resources/svg/major-lock.svg

<svg xmlns="http://www.w3.org/2000/svg" viewBox="0 0 20 20" fill="currentColor"><path fill-rule="evenodd" d="M4 6v2h-1.5a1.5 1.5 0 0 0-1.5 1.5v9a1.5 1.5 0 0 0 1.5 1.5h15a1.5 1.5 0 0 0 1.5-1.5v-9a1.5 1.5 0 0 0-1.5-1.5h-1.5v-2a6 6 0 0 0-12 0zm6-4a4 4 0 0 0-4 4v2h8v-2a4 4 0 0 0-4-4zm1 14v-4h-2v4h2z"/></svg>

<svg xmlns="http://www.w3.org/2000/svg" viewBox="0 0 20 20" fill="currentColor"><path fill-rule="evenodd" d="M4 6v2H2.5A1.5 1.5 0 001 9.5v9A1.5 1.5 0 002.5 20h15a1.5 1.5 0 001.5-1.5v-9A1.5 1.5 0 0017.5 8H16V6A6 6 0 004 6zm6-4a4 4 0 00-4 4v2h8V6a4 4 0 00-4-4zm1 14v-4H9v4h2z" fill="#5C5F62"/></svg>
